src/assets/outline/Designtools.svg

<svg width="24" height="24" viewBox="0 0 24 24"  xmlns="http://www.w3.org/2000/svg">
<path d="M10.4299 18.3699C10.2799 18.3699 10.1399 18.3299 10.0099 18.2399C9.79991 18.0999 9.67991 17.8699 9.67991 17.6199C9.67991 17.4699 9.66991 17.3099 9.64991 17.1499C9.55991 16.4399 9.23991 15.8199 8.69991 15.2799C8.15991 14.7399 7.48991 14.3999 6.76991 14.3099C6.64991 14.2999 6.47991 14.2899 6.31991 14.2999C6.05991 14.3199 5.81991 14.2099 5.66991 13.9999C5.51991 13.7999 5.47991 13.5299 5.55991 13.2899C5.70991 12.8799 5.92991 12.5099 6.18991 12.2099L7.72991 10.2699C10.3799 6.95992 15.7499 2.97992 19.6799 1.39992C20.5199 1.07992 21.3999 1.26992 22.0099 1.86992C22.6399 2.49992 22.8299 3.39992 22.4999 4.21992C20.9199 8.15992 16.9499 13.5199 13.6399 16.1699L11.6699 17.7499C11.2999 18.0199 10.9999 18.1899 10.6999 18.3099C10.6199 18.3499 10.5199 18.3699 10.4299 18.3699ZM7.53991 12.9399C8.37991 13.1599 9.12991 13.5999 9.75991 14.2299C10.3899 14.8499 10.8099 15.5699 11.0199 16.3699L12.7099 15.0099C15.8499 12.4999 19.6199 7.40992 21.1099 3.66992C21.2599 3.29992 21.0499 3.03992 20.9499 2.94992C20.8799 2.87992 20.6199 2.65992 20.2199 2.80992C16.4999 4.30992 11.4099 8.07992 8.88991 11.2199L7.53991 12.9399Z" />
<path d="M4.07987 22.7501C3.32987 22.7501 2.60987 22.4501 2.06987 21.9101C1.44987 21.2901 1.14987 20.4301 1.24987 19.5501L1.51987 17.0901C1.77987 14.6501 3.77987 12.8401 6.25987 12.7901C6.44987 12.7801 6.69987 12.7901 6.92987 12.8101C8.01987 12.9501 8.98987 13.4401 9.76987 14.2201C10.5399 14.9901 10.9999 15.9101 11.1399 16.9401C11.1699 17.1601 11.1899 17.4001 11.1899 17.6101C11.1899 18.9301 10.6799 20.1601 9.75987 21.0901C8.98987 21.8501 7.99987 22.3201 6.87987 22.4601L4.40987 22.7301C4.29987 22.7401 4.18987 22.7501 4.07987 22.7501ZM6.44987 14.3001C6.40987 14.3001 6.35987 14.3001 6.31987 14.3001C4.80987 14.3301 3.20987 15.3601 3.00987 17.2601L2.73987 19.7201C2.68987 20.1401 2.83987 20.5501 3.12987 20.8501C3.41987 21.1401 3.82987 21.2901 4.23987 21.2401L6.69987 20.9701C7.46987 20.8701 8.15987 20.5501 8.67987 20.0301C9.31987 19.3901 9.67987 18.5301 9.67987 17.6101C9.67987 17.4601 9.66987 17.3001 9.64987 17.1401C9.55987 16.4301 9.23987 15.8101 8.69987 15.2701C8.15987 14.7301 7.48987 14.3901 6.76987 14.3001C6.68987 14.3001 6.56987 14.3001 6.44987 14.3001Z" />
<path d="M14.2398 15.2202C13.8298 15.2202 13.4898 14.8802 13.4898 14.4702C13.4898 12.2702 11.6998 10.4902 9.50977 10.4902C9.09977 10.4902 8.75977 10.1502 8.75977 9.74023C8.75977 9.33023 9.08977 8.99023 9.49977 8.99023C12.5198 8.99023 14.9798 11.4502 14.9798 14.4702C14.9898 14.8902 14.6498 15.2202 14.2398 15.2202Z" />
<path d="M15.6799 22.7302C14.7499 22.7302 13.8199 22.2902 12.9299 21.4002C12.6399 21.1102 12.6399 20.6302 12.9299 20.3402C13.2199 20.0502 13.6999 20.0502 13.9899 20.3402C15.1699 21.5202 16.1799 21.5202 17.3599 20.3402L20.3199 17.3802C21.5099 16.1902 21.5099 15.1802 20.3199 14.0002L19.5799 13.2702C19.2899 12.9802 19.2799 12.5002 19.5699 12.2102C19.8599 11.9102 20.3399 11.9102 20.6299 12.2002L21.3699 12.9302C23.1499 14.7102 23.1499 16.6602 21.3699 18.4402L18.4099 21.4002C17.5399 22.2802 16.6099 22.7302 15.6799 22.7302Z" />
<path d="M3.10977 11.2598C2.91977 11.2598 2.71977 11.1898 2.57977 11.0398C0.819766 9.26977 0.819766 7.30977 2.57977 5.53977L5.53977 2.57977C7.29977 0.819766 9.27977 0.819766 11.0398 2.57977L11.7798 3.31977C12.0698 3.60977 12.0698 4.08977 11.7798 4.37977C11.4898 4.66977 11.0098 4.66977 10.7198 4.37977L9.96977 3.63977C8.78977 2.45977 7.76977 2.45977 6.59977 3.63977L3.63977 6.59977C2.45977 7.78977 2.45977 8.79977 3.63977 9.98977C3.92977 10.2798 3.92977 10.7598 3.63977 11.0498C3.48977 11.1898 3.29977 11.2598 3.10977 11.2598Z" />
<path d="M7.55023 8.30004C7.36023 8.30004 7.17023 8.23004 7.02023 8.08004C6.73023 7.79004 6.73023 7.31004 7.02023 7.02004L10.7202 3.32004C11.0102 3.03004 11.4902 3.03004 11.7802 3.32004C12.0702 3.61004 12.0702 4.09004 11.7802 4.38004L8.08023 8.08004C7.93023 8.23004 7.74023 8.30004 7.55023 8.30004Z" />
<path d="M17.1601 16.4302C16.9701 16.4302 16.7801 16.3602 16.6301 16.2102C16.3401 15.9202 16.3401 15.4402 16.6301 15.1502L19.5901 12.1902C19.8801 11.9002 20.3601 11.9002 20.6501 12.1902C20.9401 12.4802 20.9401 12.9602 20.6501 13.2502L17.6901 16.2102C17.5501 16.3602 17.3601 16.4302 17.1601 16.4302Z" />
</svg>

<?xml version="1.0" encoding="UTF-8"?>
<svg width="24" height="24" viewBox="0 0 24 24" xmlns="http://www.w3.org/2000/svg">
 <path d="m10.43 18.37c-0.15 0-0.29-0.04-0.42-0.13-0.20999-0.14-0.32999-0.37-0.32999-0.62 0-0.15-0.01-0.31-0.03-0.47-0.09-0.71-0.41-1.33-0.95-1.87s-1.21-0.88-1.93-0.97c-0.12-0.01-0.29-0.02-0.45-0.01-0.26 0.02-0.5-0.09-0.65-0.3-0.15-0.2-0.19-0.47-0.11-0.71 0.15-0.41 0.37-0.78 0.63-1.08l1.54-1.94c2.65-3.31 8.02-7.29 11.95-8.87 0.84-0.32 1.72-0.13 2.33 0.47 0.63 0.63 0.82 1.53 0.49 2.35-1.58 3.94-5.55 9.3-8.86 11.95l-1.97 1.58c-0.37 0.27-0.67 0.44-0.97 0.56-0.08 0.04-0.18 0.06-0.27 0.06zm-2.89-5.43c0.84 0.22 1.59 0.66 2.22 1.29 0.62999 0.62 1.05 1.34 1.26 2.14l1.69-1.36c3.14-2.51 6.91-7.6 8.4-11.34 0.15-0.37-0.06-0.63-0.16-0.72-0.07-0.07-0.33-0.29-0.73-0.14-3.72 1.5-8.81 5.27-11.33 8.41l-1.35 1.72z"/>
 <path d="m4.0799 22.75c-0.75 0-1.47-0.3-2.01-0.84-0.62-0.62-0.92-1.48-0.82-2.36l0.27-2.46c0.26-2.44 2.26-4.25 4.74-4.3 0.19-0.01 0.44 0 0.67 0.02 1.09 0.14 2.06 0.63 2.84 1.41 0.77003 0.77 1.23 1.69 1.37 2.72 0.03 0.22 0.05 0.46 0.05 0.67 0 1.32-0.51 2.55-1.43 3.48-0.77 0.76-1.76 1.23-2.88 1.37l-2.47 0.27c-0.11 0.01-0.22 0.02-0.33 0.02zm2.37-8.45h-0.13c-1.51 0.03-3.11 1.06-3.31 2.96l-0.27 2.46c-0.05 0.42 0.1 0.83 0.39 1.13 0.29 0.29 0.7 0.44 1.11 0.39l2.46-0.27c0.77-0.1 1.46-0.42 1.98-0.94 0.64-0.64 1-1.5 1-2.42 0-0.15-0.01-0.31-0.03-0.47-0.09-0.71-0.41-1.33-0.95-1.87s-1.21-0.88-1.93-0.97h-0.32z"/>
 <path d="m14.24 15.22c-0.41 0-0.75-0.34-0.75-0.75 0-2.2-1.79-3.98-3.98-3.98-0.41 0-0.75-0.34-0.75-0.74997 0-0.41 0.33-0.75 0.74-0.75 3.02 0 5.48 2.46 5.48 5.48 0.01 0.42-0.33 0.75-0.74 0.75z"/>
 <path d="m15.68 22.73c-0.93 0-1.86-0.44-2.75-1.33-0.29-0.29-0.29-0.77 0-1.06s0.77-0.29 1.06 0c1.18 1.18 2.19 1.18 3.37 0l2.96-2.96c1.19-1.19 1.19-2.2 0-3.38l-0.74-0.73c-0.29-0.29-0.3-0.77-0.01-1.06 0.29-0.3 0.77-0.3 1.06-0.01l0.74 0.73c1.78 1.78 1.78 3.73 0 5.51l-2.96 2.96c-0.87 0.88-1.8 1.33-2.73 1.33z"/>
 <path d="m3.1098 11.26c-0.19 0-0.39-0.07-0.53-0.22-1.76-1.77-1.76-3.73 0-5.5l2.96-2.96c1.76-1.76 3.74-1.76 5.5 0l0.74 0.74c0.29 0.29 0.29 0.77 0 1.06s-0.77 0.29-1.06 0l-0.75003-0.74c-1.18-1.18-2.2-1.18-3.37 0l-2.96 2.96c-1.18 1.19-1.18 2.2 0 3.39 0.29 0.29003 0.29 0.77003 0 1.06-0.15 0.14-0.34 0.21-0.53 0.21z"/>
 <path d="m7.5502 8.3c-0.19 0-0.38-0.07-0.53-0.22-0.29-0.29-0.29-0.77 0-1.06l3.7-3.7c0.29-0.29 0.77-0.29 1.06 0s0.29 0.77 0 1.06l-3.7 3.7c-0.15 0.15-0.34 0.22-0.53 0.22z"/>
 <path d="m17.16 16.43c-0.19 0-0.38-0.07-0.53-0.22-0.29-0.29-0.29-0.77 0-1.06l2.96-2.96c0.29-0.29 0.77-0.29 1.06 0s0.29 0.77 0 1.06l-2.96 2.96c-0.14 0.15-0.33 0.22-0.53 0.22z"/>
</svg>
